X:1
T:Title
%%score { ( 1 4 ) | ( 2 3 ) }
L:1/8
Q:1/4=100
M:4/4
K:Bb
V:1 treble nm="Grand Piano"
V:4 treble 
V:2 bass 
V:3 bass 
V:1
 [DF]2 [EG][DF] [DB]3 [FA] | [FB][Fd][=Ec][EB] c3 c | B2 [FA]2 [EG][FA][GB]G | F2 E2 D4 | %4
w: S.~J.~Vail * * * *||||
 [DF]2 [EG][DF] [DB]3 [FA] | [FB][Fd][=Ec][EB] c3 c | B2 [FA]2 [EG][FA][GB][Gc] | %7
w: |||
 [Fd]2 [Ec]2 [DB]4 | D2 E2 D3 D | ED[DF]D D2 C2 | C2 D2 E3 G | FEDC E2 D2 | %12
w: |||||
 [Fd][DFB][B,FB][Fc] [GB]2 [EG]2 | z4 c4 | [Ff][Ff][Ff][Ff] [Ge]2 [GB][Gc] | [Fd]2 [Ec]2 [DB]4 |] %16
w: ||||
V:2
 [B,,B,]2 [B,,B,][B,,B,] [B,,F,]3 [C,F,] | [D,F,][B,,B,][C,B,][C,G,] [F,A,F]3 [F,A,E] | %2
 [G,B,D]2 [D,B,]2 [E,B,][E,B,][E,B,][E,B,E] | [F,B,D]2 [F,C]2 [B,,F,B,]4 | %4
 [B,,B,]2 [B,,B,][B,,B,] [B,,F,]3 [C,F,] | [D,F,][B,,B,][C,B,][C,G,] [F,A,F]3 [F,A,E] | %6
 [G,B,D]2 [D,B,]2 [E,B,][E,B,][E,B,][E,B,] | [F,B,]2 [F,A,]2 [B,,B,]4 | %8
 [B,,F,]2 [B,,G,]2 [B,,F,]3 [B,,F,] | z4 B,2 z2 | [F,A,]2 [F,B,]2 [F,C]3 [F,E] | %11
 [F,D][F,C][F,B,][F,A,] B,,2- [B,,F,]2 | [B,,B,]B,,D,[D,B,] [E,B,]2 [E,B,]2 | z4 [A,F]4 | %14
 [D,B,][D,B,][D,B,][D,B,] [E,B,]2 [E,B,][E,B,] | [F,B,]2 [F,A,]2 [B,,B,]4 |] %16
V:3
 x8 | x8 | x8 | x8 | x8 | x8 | x8 | x8 | x8 | [B,,G,][B,,F,]B,,[B,,B,] F,2- [F,A,]2 | x8 | %11
 z4 G,2 z2 | x8 | [C,C][C,G,][C,G,][C,B,] F,2 z2 | x8 | x8 |] %16
V:4
 x8 | x8 | x8 | x8 | x8 | x8 | x8 | x8 | x8 | x8 | x8 | x8 | x8 | [Ee][Ec][=Ec][Ed] z2 E,2 | x8 | %15
 x8 |] %16

